; generated by Slic3r 1.0.1 on 2014-05-20 at 02:42:49

; layer_height = 0.25
; perimeters = 4
; top_solid_layers = 3
; bottom_solid_layers = 3
; fill_density = 0.35
; perimeter_speed = 23
; infill_speed = 43
; travel_speed = 65
; nozzle_diameter = 0.35
; filament_diameter = 1.75
; extrusion_multiplier = 1
; perimeters extrusion width = 0.35mm
; infill extrusion width = 0.39mm
; solid infill extrusion width = 0.39mm
; top infill extrusion width = 0.39mm
; support material extrusion width = 0.35mm
; first layer extrusion width = 0.70mm

G21 ; set units to millimeters
M107
M190 S110 ; wait for bed temperature to be reached
M104 S230 ; set temperature
G28 ; home all axes
M109 S230 ; wait for temperature to be reached
G90 ; use absolute coordinates
G92 E0
M82 ; use absolute distances for extrusion
G1 F1800.000 E-1.00000
G92 E0
G1 Z0.350 F3900.000
G1 X56.279 Y59.797 F3900.000
G1 E1.00000 F1800.000
G1 X57.639 Y58.797 E1.15350 F414.000
G1 X58.839 Y58.097 E1.27982
G1 X60.169 Y57.657 E1.40720
G1 X61.559 Y57.517 E1.53423
G1 X105.829 Y57.517 E5.55969
G1 X107.209 Y57.657 E5.68581
G1 X108.529 Y58.087 E5.81205
G1 X109.739 Y58.787 E5.93916
G1 X111.109 Y59.787 E6.09339
G1 X112.109 Y60.687 E6.21572
G1 X112.909 Y61.777 E6.33866
G1 X119.979 Y73.777 E7.60512
G1 X120.659 Y75.397 E7.76487
G1 X120.889 Y77.137 E7.92447
G1 X120.889 Y107.137 E10.65236
G1 X120.739 Y108.567 E10.78310
G1 X120.279 Y109.937 E10.91451
G1 X119.529 Y111.167 E11.04550
G1 X118.539 Y112.207 E11.17606
G1 X117.339 Y113.007 E11.30720
G1 X115.999 Y113.537 E11.43823
G1 X105.929 Y116.257 E12.38671
G1 X105.069 Y116.427 E12.46642
G1 X104.199 Y116.477 E12.54566
G1 X57.199 Y116.477 E16.81935
G1 X55.909 Y116.357 E16.93716
G1 X54.659 Y115.977 E17.05596
G1 X53.519 Y115.367 E17.17352
G1 X52.519 Y114.537 E17.29169
G1 X51.689 Y113.537 E17.40986
G1 X51.079 Y112.397 E17.52743
G1 X50.699 Y111.147 E17.64623
G1 X50.579 Y109.857 E17.76403
G1 X50.579 Y77.137 E20.73925
G1 X50.619 Y76.397 E20.80664
G1 X50.739 Y75.677 E20.87301
G1 X53.069 Y65.397 E21.83147
G1 X53.359 Y64.457 E21.92092
G1 X54.029 Y62.737 E22.08877
G1 X54.939 Y61.107 E22.25852
G1 X56.212 Y59.862 E22.42039
G1 F1800.000 E21.42039
G92 E0
G1 X91.869 Y66.378 F3900.000
G1 E1.00000 F1800.000
G1 X92.052 Y66.195 E1.02354 F414.000
G1 X92.736 Y66.195 E1.08571
G1 X93.089 Y65.535 E1.15379
G1 X92.870 Y65.206 E1.18970
G1 X92.913 Y64.959 E1.21248
G1 X94.473 Y63.813 E1.38846
G1 X94.870 Y63.856 E1.42482
G1 X95.138 Y63.762 E1.45063
G1 X95.205 Y63.695 E1.45920
G1 X97.024 Y63.695 E1.62467
G1 X97.160 Y63.766 E1.63859
G1 X97.457 Y64.191 E1.68571
G1 X97.514 Y64.634 E1.72633
G1 X97.868 Y64.945 E1.76917
G1 X98.124 Y64.945 E1.79244
G1 X98.260 Y65.016 E1.80636
G1 X98.556 Y65.441 E1.85348
G1 X98.603 Y65.797 E1.88613
G1 X98.767 Y66.041 E1.91295
G1 X99.181 Y66.276 E1.95621
G1 X99.470 Y66.757 E2.00721
G1 X99.478 Y67.090 E2.03750
G1 X99.842 Y67.445 E2.08372
G1 X99.892 Y67.445 E2.08823
G1 X99.970 Y67.522 E2.09822
G1 X100.595 Y67.427 E2.15571
G1 X101.120 Y66.425 E2.25853
G1 X101.178 Y66.363 E2.26630
G1 X101.418 Y66.218 E2.29183
G1 X101.536 Y66.185 E2.30297
G1 X101.783 Y65.900 E2.33719
G1 X101.842 Y65.441 E2.37934
G1 X102.139 Y65.016 E2.42646
G1 X102.275 Y64.945 E2.44038
G1 X102.531 Y64.945 E2.46365
G1 X102.884 Y64.634 E2.50649
G1 X102.942 Y64.191 E2.54712
G1 X103.238 Y63.766 E2.59423
G1 X103.374 Y63.695 E2.60816
G1 X105.192 Y63.695 E2.77346
G1 X105.259 Y63.762 E2.78206
G1 X105.527 Y63.856 E2.80786
G1 X105.926 Y63.813 E2.84437
G1 X107.485 Y64.959 E3.02035
G1 X107.529 Y65.206 E3.04313
G1 X107.310 Y65.535 E3.07904
G1 X107.663 Y66.195 E3.14712
G1 X108.347 Y66.195 E3.20929
G1 X108.530 Y66.378 E3.23283
G1 X108.530 Y67.337 E3.32002
G1 X108.347 Y67.520 E3.34355
G1 X108.106 Y67.520 E3.36544
G1 X107.736 Y67.912 E3.41447
G1 X107.750 Y68.146 E3.43575
G1 X106.972 Y69.773 E3.59978
G1 X106.849 Y69.912 E3.61669
G1 X106.767 Y70.127 E3.63757
G1 X106.767 Y71.086 E3.72477
G1 X106.392 Y71.461 E3.77300
G1 X106.297 Y71.691 E3.79561
G1 X106.297 Y74.493 E4.05038
G1 X106.281 Y74.561 E4.05678
G1 X105.473 Y76.240 E4.22617
G1 X105.841 Y76.825 E4.28898
G1 X114.406 Y76.825 E5.06784
G1 X114.589 Y77.008 E5.09138
G1 X114.589 Y81.266 E5.47863
G1 X114.406 Y81.449 E5.50217
G1 X105.885 Y81.449 E6.27700
G1 X105.519 Y81.815 E6.32408
G1 X105.519 Y82.334 E6.37123
G1 X105.336 Y82.517 E6.39476
G1 X104.878 Y82.517 E6.43639
G1 X104.512 Y82.883 E6.48347
G1 X104.512 Y83.992 E6.58434
G1 X104.329 Y84.175 E6.60788
G1 X90.070 Y84.175 E7.90443
G1 X89.887 Y83.992 E7.92796
G1 X89.887 Y77.008 E8.56310
G1 X90.070 Y76.825 E8.58663
G1 X94.558 Y76.825 E8.99475
G1 X94.926 Y76.240 E9.05756
G1 X94.117 Y74.561 E9.22695
G1 X94.102 Y74.493 E9.23335
G1 X94.102 Y71.781 E9.47989
G1 X94.148 Y71.579 E9.49876
G1 X94.024 Y71.235 E9.53204
G1 X93.755 Y71.028 E9.56290
G1 X93.698 Y70.942 E9.57229
G1 X93.258 Y69.290 E9.72770
G1 X93.286 Y69.152 E9.74055
G1 X93.113 Y68.780 E9.77785
G1 X92.953 Y68.693 E9.79434
G1 X92.661 Y68.237 E9.84364
G1 X92.634 Y67.855 E9.87840
G1 X92.274 Y67.520 E9.92315
G1 X92.052 Y67.520 E9.94332
G1 X91.869 Y67.337 E9.96685
G1 X91.869 Y66.472 E10.04552
G1 F1800.000 E9.04552
G92 E0
G1 X98.111 Y69.045 F3900.000
G1 E1.00000 F1800.000
G1 X98.454 Y68.769 E1.04001 F414.000
G1 X99.892 Y68.769 E1.17074
G1 X99.999 Y68.662 E1.18451
G1 X100.416 Y68.605 E1.22276
G1 X100.707 Y68.769 E1.25314
G1 X101.945 Y68.769 E1.36568
G1 X102.287 Y69.045 E1.40569
G1 X102.587 Y70.407 E1.53250
G1 X102.644 Y70.498 E1.54226
G1 X103.020 Y70.798 E1.58595
G1 X103.107 Y70.908 E1.59875
G1 X103.755 Y72.253 E1.73452
G1 X103.787 Y72.390 E1.74733
G1 X103.787 Y73.884 E1.88309
G1 X103.755 Y74.021 E1.89590
G1 X103.107 Y75.366 E2.03166
G1 X103.020 Y75.476 E2.04447
G1 X101.852 Y76.407 E2.18024
G1 X101.725 Y76.468 E2.19304
G1 X100.270 Y76.800 E2.32881
G1 X100.129 Y76.800 E2.34161
G1 X98.673 Y76.468 E2.47738
G1 X98.546 Y76.407 E2.49018
G1 X97.379 Y75.476 E2.62595
G1 X97.291 Y75.366 E2.63876
G1 X96.643 Y74.021 E2.77452
G1 X96.612 Y73.884 E2.78733
G1 X96.612 Y72.390 E2.92309
G1 X96.643 Y72.253 E2.93590
G1 X97.291 Y70.908 E3.07167
G1 X97.379 Y70.798 E3.08447
G1 X97.755 Y70.498 E3.12816
G1 X97.812 Y70.407 E3.13793
G1 X98.091 Y69.137 E3.25621
G1 F1800.000 E2.25621
G92 E0
G1 X81.589 Y77.008 F3900.000
G1 E1.00000 F1800.000
G1 X81.589 Y81.266 E1.38725 F414.000
G1 X81.406 Y81.449 E1.41079
G1 X72.885 Y81.449 E2.18563
G1 X72.519 Y81.815 E2.23270
G1 X72.519 Y82.334 E2.27985
G1 X72.336 Y82.517 E2.30338
G1 X71.878 Y82.517 E2.34502
G1 X71.512 Y82.883 E2.39209
G1 X71.512 Y83.992 E2.49296
G1 X71.329 Y84.175 E2.51650
G1 X57.070 Y84.175 E3.81305
G1 X56.887 Y83.992 E3.83659
G1 X56.887 Y77.008 E4.47172
G1 X57.070 Y76.825 E4.49526
G1 X61.558 Y76.825 E4.90337
G1 X61.926 Y76.240 E4.96618
G1 X61.117 Y74.561 E5.13557
G1 X61.102 Y74.493 E5.14197
G1 X61.102 Y71.781 E5.38851
G1 X61.148 Y71.579 E5.40738
G1 X61.024 Y71.235 E5.44067
G1 X60.755 Y71.028 E5.47152
G1 X60.698 Y70.942 E5.48091
G1 X60.258 Y69.290 E5.63632
G1 X60.286 Y69.152 E5.64918
G1 X60.113 Y68.780 E5.68647
G1 X59.953 Y68.693 E5.70296
G1 X59.661 Y68.237 E5.75226
G1 X59.634 Y67.855 E5.78702
G1 X59.274 Y67.520 E5.83177
G1 X59.052 Y67.520 E5.85194
G1 X58.869 Y67.337 E5.87547
G1 X58.869 Y66.378 E5.96266
G1 X59.052 Y66.195 E5.98620
G1 X59.736 Y66.195 E6.04837
G1 X60.089 Y65.535 E6.11645
G1 X59.870 Y65.206 E6.15236
G1 X59.913 Y64.959 E6.17514
G1 X61.473 Y63.813 E6.35112
G1 X61.870 Y63.856 E6.38748
G1 X62.138 Y63.762 E6.41329
G1 X62.205 Y63.695 E6.42187
G1 X64.024 Y63.695 E6.58733
G1 X64.160 Y63.766 E6.60125
G1 X64.457 Y64.191 E6.64837
G1 X64.514 Y64.634 E6.68900
G1 X64.868 Y64.945 E6.73184
G1 X65.124 Y64.945 E6.75510
G1 X65.260 Y65.016 E6.76903
G1 X65.556 Y65.441 E6.81614
G1 X65.603 Y65.797 E6.84879
G1 X65.767 Y66.041 E6.87561
G1 X66.181 Y66.276 E6.91887
G1 X66.470 Y66.757 E6.96987
G1 X66.478 Y67.090 E7.00016
G1 X66.842 Y67.445 E7.04638
G1 X66.892 Y67.445 E7.05089
G1 X66.970 Y67.522 E7.06088
G1 X67.595 Y67.427 E7.11837
G1 X68.120 Y66.425 E7.22119
G1 X68.178 Y66.363 E7.22896
G1 X68.418 Y66.218 E7.25449
G1 X68.536 Y66.185 E7.26563
G1 X68.783 Y65.900 E7.29985
G1 X68.842 Y65.441 E7.34200
G1 X69.139 Y65.016 E7.38912
G1 X69.275 Y64.945 E7.40304
G1 X69.531 Y64.945 E7.42631
G1 X69.884 Y64.634 E7.46915
G1 X69.942 Y64.191 E7.50978
G1 X70.238 Y63.766 E7.55689
G1 X70.374 Y63.695 E7.57082
G1 X72.192 Y63.695 E7.73612
G1 X72.259 Y63.762 E7.74472
G1 X72.527 Y63.856 E7.77052
G1 X72.926 Y63.813 E7.80703
G1 X74.485 Y64.959 E7.98301
G1 X74.529 Y65.206 E8.00579
G1 X74.310 Y65.535 E8.04170
G1 X74.663 Y66.195 E8.10978
G1 X75.347 Y66.195 E8.17196
G1 X75.530 Y66.378 E8.19549
G1 X75.530 Y67.337 E8.28268
G1 X75.347 Y67.520 E8.30621
G1 X75.106 Y67.520 E8.32810
G1 X74.736 Y67.912 E8.37713
G1 X74.750 Y68.146 E8.39842
G1 X73.972 Y69.773 E8.56244
G1 X73.849 Y69.912 E8.57936
G1 X73.767 Y70.127 E8.60024
G1 X73.767 Y71.086 E8.68743
G1 X73.392 Y71.461 E8.73566
G1 X73.297 Y71.691 E8.75827
G1 X73.297 Y74.493 E9.01304
G1 X73.281 Y74.561 E9.01944
G1 X72.473 Y76.240 E9.18883
G1 X72.841 Y76.825 E9.25164
G1 X81.406 Y76.825 E10.03050
G1 X81.523 Y76.941 E10.04552
G1 F1800.000 E9.04552
G92 E0
G1 X70.755 Y74.021 F3900.000
G1 E1.00000 F1800.000
G1 X70.107 Y75.366 E1.13577 F414.000
G1 X70.020 Y75.476 E1.14857
G1 X68.852 Y76.407 E1.28434
G1 X68.725 Y76.468 E1.29714
G1 X67.270 Y76.800 E1.43291
G1 X67.129 Y76.800 E1.44571
G1 X65.673 Y76.468 E1.58148
G1 X65.546 Y76.407 E1.59429
G1 X64.379 Y75.476 E1.73005
G1 X64.291 Y75.366 E1.74286
G1 X63.643 Y74.021 E1.87863
G1 X63.612 Y73.884 E1.89143
G1 X63.612 Y72.390 E2.02720
G1 X63.643 Y72.253 E2.04000
G1 X64.291 Y70.908 E2.17577
G1 X64.379 Y70.798 E2.18857
G1 X64.755 Y70.498 E2.23226
G1 X64.812 Y70.407 E2.24203
G1 X65.111 Y69.045 E2.36883
G1 X65.454 Y68.769 E2.40884
G1 X66.892 Y68.769 E2.53958
G1 X66.999 Y68.662 E2.55334
G1 X67.416 Y68.605 E2.59159
G1 X67.707 Y68.769 E2.62197
G1 X68.945 Y68.769 E2.73451
G1 X69.287 Y69.045 E2.77452
G1 X69.587 Y70.407 E2.90133
G1 X69.644 Y70.498 E2.91109
G1 X70.020 Y70.798 E2.95478
G1 X70.107 Y70.908 E2.96759
G1 X70.755 Y72.253 E3.10335
G1 X70.787 Y72.390 E3.11616
G1 X70.776 Y73.929 E3.25610
G1 F1800.000 E2.25610
G92 E0
G1 X92.913 Y90.959 F3900.000
G1 E1.00000 F1800.000
G1 X94.473 Y89.813 E1.17598 F414.000
G1 X94.870 Y89.856 E1.21234
G1 X95.138 Y89.762 E1.23814
G1 X95.205 Y89.695 E1.24672
G1 X97.024 Y89.695 E1.41219
G1 X97.160 Y89.766 E1.42611
G1 X97.457 Y90.191 E1.47323
G1 X97.514 Y90.634 E1.51385
G1 X97.868 Y90.945 E1.55669
G1 X98.124 Y90.945 E1.57996
G1 X98.260 Y91.016 E1.59388
G1 X98.556 Y91.441 E1.64100
G1 X98.603 Y91.797 E1.67365
G1 X98.767 Y92.041 E1.70047
G1 X99.181 Y92.276 E1.74373
G1 X99.470 Y92.757 E1.79473
G1 X99.478 Y93.090 E1.82502
G1 X99.842 Y93.445 E1.87124
G1 X99.892 Y93.445 E1.87575
G1 X99.970 Y93.522 E1.88574
G1 X100.595 Y93.427 E1.94323
G1 X101.120 Y92.425 E2.04605
G1 X101.178 Y92.363 E2.05382
G1 X101.418 Y92.218 E2.07935
G1 X101.536 Y92.185 E2.09049
G1 X101.783 Y91.900 E2.12471
G1 X101.842 Y91.441 E2.16686
G1 X102.139 Y91.016 E2.21398
G1 X102.275 Y90.945 E2.22790
G1 X102.531 Y90.945 E2.25117
G1 X102.884 Y90.634 E2.29401
G1 X102.942 Y90.191 E2.33463
G1 X103.238 Y89.766 E2.38175
G1 X103.374 Y89.695 E2.39568
G1 X105.192 Y89.695 E2.56097
G1 X105.259 Y89.762 E2.56958
G1 X105.527 Y89.856 E2.59538
G1 X105.926 Y89.813 E2.63189
G1 X107.485 Y90.959 E2.80787
G1 X107.529 Y91.206 E2.83065
G1 X107.310 Y91.535 E2.86656
G1 X107.663 Y92.195 E2.93464
G1 X108.347 Y92.195 E2.99681
G1 X108.530 Y92.378 E3.02035
G1 X108.530 Y93.337 E3.10754
G1 X108.347 Y93.520 E3.13107
G1 X108.106 Y93.520 E3.15296
G1 X107.736 Y93.912 E3.20199
G1 X107.750 Y94.146 E3.22327
G1 X106.972 Y95.773 E3.38730
G1 X106.849 Y95.912 E3.40421
G1 X106.767 Y96.127 E3.42509
G1 X106.767 Y97.086 E3.51229
G1 X106.392 Y97.461 E3.56052
G1 X106.297 Y97.691 E3.58313
G1 X106.297 Y100.493 E3.83790
G1 X106.281 Y100.561 E3.84430
G1 X105.473 Y102.240 E4.01369
G1 X105.841 Y102.825 E4.07650
G1 X114.406 Y102.825 E4.85536
G1 X114.589 Y103.008 E4.87890
G1 X114.589 Y107.266 E5.26615
G1 X114.406 Y107.449 E5.28969
G1 X105.885 Y107.449 E6.06452
G1 X105.519 Y107.815 E6.11160
G1 X105.519 Y108.334 E6.15875
G1 X105.336 Y108.517 E6.18228
G1 X104.878 Y108.517 E6.22391
G1 X104.512 Y108.883 E6.27098
G1 X104.512 Y109.992 E6.37186
G1 X104.329 Y110.175 E6.39540
G1 X90.070 Y110.175 E7.69195
G1 X89.887 Y109.992 E7.71548
G1 X89.887 Y103.008 E8.35062
G1 X90.070 Y102.825 E8.37415
G1 X94.558 Y102.825 E8.78227
G1 X94.926 Y102.240 E8.84507
G1 X94.117 Y100.561 E9.01447
G1 X94.102 Y100.493 E9.02087
G1 X94.102 Y97.781 E9.26741
G1 X94.148 Y97.579 E9.28627
G1 X94.024 Y97.235 E9.31956
G1 X93.755 Y97.028 E9.35042
G1 X93.698 Y96.942 E9.35981
G1 X93.258 Y95.290 E9.51522
G1 X93.286 Y95.152 E9.52807
G1 X93.113 Y94.780 E9.56536
G1 X92.953 Y94.693 E9.58185
G1 X92.661 Y94.237 E9.63116
G1 X92.634 Y93.855 E9.66592
G1 X92.274 Y93.520 E9.71067
G1 X92.052 Y93.520 E9.73084
G1 X91.869 Y93.337 E9.75437
G1 X91.869 Y92.378 E9.84156
G1 X92.052 Y92.195 E9.86509
G1 X92.736 Y92.195 E9.92727
G1 X93.089 Y91.535 E9.99534
G1 X92.870 Y91.206 E10.03126
G1 X92.897 Y91.052 E10.04552
G1 F1800.000 E9.04552
G92 E0
G1 X98.111 Y95.045 F3900.000
G1 E1.00000 F1800.000
G1 X98.454 Y94.769 E1.04001 F414.000
G1 X99.892 Y94.769 E1.17074
G1 X99.999 Y94.662 E1.18451
G1 X100.416 Y94.605 E1.22276
G1 X100.707 Y94.769 E1.25314
G1 X101.945 Y94.769 E1.36568
G1 X102.287 Y95.045 E1.40569
G1 X102.587 Y96.407 E1.53250
G1 X102.644 Y96.498 E1.54226
G1 X103.020 Y96.798 E1.58595
G1 X103.107 Y96.908 E1.59875
G1 X103.755 Y98.253 E1.73452
G1 X103.787 Y98.390 E1.74733
G1 X103.787 Y99.884 E1.88309
G1 X103.755 Y100.021 E1.89590
G1 X103.107 Y101.366 E2.03166
G1 X103.020 Y101.476 E2.04447
G1 X101.852 Y102.407 E2.18024
G1 X101.725 Y102.468 E2.19304
G1 X100.270 Y102.800 E2.32881
G1 X100.129 Y102.800 E2.34161
G1 X98.673 Y102.468 E2.47738
G1 X98.546 Y102.407 E2.49018
G1 X97.379 Y101.476 E2.62595
G1 X97.291 Y101.366 E2.63876
G1 X96.643 Y100.021 E2.77452
G1 X96.612 Y99.884 E2.78733
G1 X96.612 Y98.390 E2.92309
G1 X96.643 Y98.253 E2.93590
G1 X97.291 Y96.908 E3.07167
G1 X97.379 Y96.798 E3.08447
G1 X97.755 Y96.498 E3.12816
G1 X97.812 Y96.407 E3.13793
G1 X98.091 Y95.137 E3.25621
G1 F1800.000 E2.25621
G92 E0
G1 X81.589 Y103.008 F3900.000
G1 E1.00000 F1800.000
G1 X81.589 Y107.266 E1.38725 F414.000
G1 X81.406 Y107.449 E1.41079
G1 X72.885 Y107.449 E2.18563
G1 X72.519 Y107.815 E2.23270
G1 X72.519 Y108.334 E2.27985
G1 X72.336 Y108.517 E2.30338
G1 X71.878 Y108.517 E2.34502
G1 X71.512 Y108.883 E2.39209
G1 X71.512 Y109.992 E2.49296
G1 X71.329 Y110.175 E2.51650
G1 X57.070 Y110.175 E3.81305
G1 X56.887 Y109.992 E3.83659
G1 X56.887 Y103.008 E4.47172
G1 X57.070 Y102.825 E4.49526
G1 X61.558 Y102.825 E4.90337
G1 X61.926 Y102.240 E4.96618
G1 X61.117 Y100.561 E5.13557
G1 X61.102 Y100.493 E5.14197
G1 X61.102 Y97.781 E5.38851
G1 X61.148 Y97.579 E5.40738
G1 X61.024 Y97.235 E5.44067
G1 X60.755 Y97.028 E5.47152
G1 X60.698 Y96.942 E5.48091
G1 X60.258 Y95.290 E5.63632
G1 X60.286 Y95.152 E5.64918
G1 X60.113 Y94.780 E5.68647
G1 X59.953 Y94.693 E5.70296
G1 X59.661 Y94.237 E5.75226
G1 X59.634 Y93.855 E5.78702
G1 X59.274 Y93.520 E5.83177
G1 X59.052 Y93.520 E5.85194
G1 X58.869 Y93.337 E5.87547
G1 X58.869 Y92.378 E5.96266
G1 X59.052 Y92.195 E5.98620
G1 X59.736 Y92.195 E6.04837
G1 X60.089 Y91.535 E6.11645
G1 X59.870 Y91.206 E6.15236
G1 X59.913 Y90.959 E6.17514
G1 X61.473 Y89.813 E6.35112
G1 X61.870 Y89.856 E6.38748
G1 X62.138 Y89.762 E6.41329
G1 X62.205 Y89.695 E6.42187
G1 X64.024 Y89.695 E6.58733
G1 X64.160 Y89.766 E6.60125
G1 X64.457 Y90.191 E6.64837
G1 X64.514 Y90.634 E6.68900
G1 X64.868 Y90.945 E6.73184
G1 X65.124 Y90.945 E6.75510
G1 X65.260 Y91.016 E6.76903
G1 X65.556 Y91.441 E6.81614
G1 X65.603 Y91.797 E6.84879
G1 X65.767 Y92.041 E6.87561
G1 X66.181 Y92.276 E6.91887
G1 X66.470 Y92.757 E6.96987
G1 X66.478 Y93.090 E7.00016
G1 X66.842 Y93.445 E7.04638
G1 X66.892 Y93.445 E7.05089
G1 X66.970 Y93.522 E7.06088
G1 X67.595 Y93.427 E7.11837
G1 X68.120 Y92.425 E7.22119
G1 X68.178 Y92.363 E7.22896
G1 X68.418 Y92.218 E7.25450
G1 X68.536 Y92.185 E7.26563
G1 X68.783 Y91.900 E7.29985
G1 X68.842 Y91.441 E7.34200
G1 X69.139 Y91.016 E7.38912
G1 X69.275 Y90.945 E7.40304
G1 X69.531 Y90.945 E7.42631
