; generated by Slic3r 1.0.1 on 2014-05-20 at 04:11:31

; layer_height = 0.25
; perimeters = 4
; top_solid_layers = 3
; bottom_solid_layers = 3
; fill_density = 0.35
; perimeter_speed = 23
; infill_speed = 43
; travel_speed = 65
; nozzle_diameter = 0.35
; filament_diameter = 1.75
; extrusion_multiplier = 1
; perimeters extrusion width = 0.35mm
; infill extrusion width = 0.39mm
; solid infill extrusion width = 0.39mm
; top infill extrusion width = 0.39mm
; support material extrusion width = 0.35mm
; first layer extrusion width = 0.70mm

G21 ; set units to millimeters
M107
M190 S110 ; wait for bed temperature to be reached
M104 S230 ; set temperature
G28 ; home all axes
M109 S230 ; wait for temperature to be reached
G90 ; use absolute coordinates
G92 E0
M82 ; use absolute distances for extrusion
G1 F1800.000 E-1.00000
G92 E0
G1 Z0.350 F3900.000
G1 X47.706 Y57.562 F3900.000
G1 E1.00000 F1800.000
G1 X50.956 Y54.852 E1.38478 F414.000
G1 X51.926 Y54.142 E1.49408
G1 X55.886 Y51.702 E1.91703
G1 X56.346 Y51.442 E1.96508
G1 X56.936 Y51.142 E2.02526
G1 X57.346 Y50.952 E2.06635
G1 X61.236 Y49.302 E2.45057
G1 X62.276 Y48.932 E2.55095
G1 X62.776 Y48.772 E2.59868
G1 X66.866 Y47.702 E2.98310
G1 X68.476 Y47.402 E3.13202
G1 X72.676 Y46.942 E3.51620
G1 X73.846 Y46.892 E3.62269
G1 X123.956 Y46.892 E8.17917
G1 X125.016 Y46.972 E8.27583
G1 X126.936 Y47.282 E8.45268
G1 X127.636 Y47.432 E8.51777
G1 X128.326 Y47.662 E8.58391
G1 X130.136 Y48.382 E8.76103
G1 X130.786 Y48.682 E8.82613
G1 X131.396 Y49.052 E8.89100
G1 X133.006 Y50.142 E9.06779
G1 X133.586 Y50.582 E9.13399
G1 X134.116 Y51.082 E9.20025
G1 X135.456 Y52.502 E9.37778
G1 X135.916 Y53.042 E9.44228
G1 X136.306 Y53.632 E9.50659
G1 X137.306 Y55.292 E9.68281
G1 X137.646 Y55.932 E9.74870
G1 X137.916 Y56.602 E9.81439
G1 X138.536 Y58.452 E9.99180
G1 X138.726 Y59.142 E10.05688
G1 X138.846 Y59.842 E10.12146
G1 X139.056 Y61.772 E10.29799
G1 X139.086 Y62.492 E10.36352
G1 X139.056 Y63.202 E10.42813
G1 X138.846 Y65.142 E10.60557
G1 X138.726 Y65.852 E10.67104
G1 X138.536 Y66.552 E10.73700
G1 X137.916 Y68.392 E10.91355
G1 X137.656 Y69.052 E10.97805
G1 X137.316 Y69.672 E11.04235
G1 X136.316 Y71.342 E11.21934
G1 X135.966 Y71.882 E11.27786
G1 X108.036 Y109.692 E15.55221
G1 X105.376 Y113.142 E15.94833
G1 X105.006 Y113.582 E16.00061
G1 X104.286 Y114.352 E16.09646
G1 X101.246 Y117.292 E16.48101
G1 X100.846 Y117.642 E16.52934
G1 X99.976 Y118.342 E16.63088
G1 X96.536 Y120.802 E17.01543
G1 X96.156 Y121.062 E17.05729
G1 X95.586 Y121.412 E17.11811
G1 X95.146 Y121.652 E17.16369
G1 X91.396 Y123.582 E17.54719
G1 X90.306 Y124.062 E17.65548
G1 X89.896 Y124.222 E17.69550
G1 X85.896 Y125.592 E18.07996
G1 X85.446 Y125.722 E18.12255
G1 X84.296 Y126.012 E18.23040
G1 X80.136 Y126.772 E18.61492
G1 X79.086 Y126.912 E18.71125
G1 X78.526 Y126.952 E18.76230
G1 X74.306 Y127.102 E19.14626
G1 X73.196 Y127.082 E19.24721
G1 X72.656 Y127.042 E19.29645
G1 X68.456 Y126.572 E19.68073
G1 X67.346 Y126.382 E19.78313
G1 X66.866 Y126.282 E19.82772
G1 X62.776 Y125.212 E20.21214
G1 X61.736 Y124.872 E20.31163
G1 X61.236 Y124.692 E20.35995
G1 X57.346 Y123.042 E20.74417
G1 X56.856 Y122.802 E20.79378
G1 X55.896 Y122.292 E20.89263
G1 X52.286 Y120.092 E21.27704
G1 X51.316 Y119.412 E21.38475
G1 X50.966 Y119.142 E21.42495
G1 X47.716 Y116.442 E21.80914
G1 X46.886 Y115.662 E21.91271
G1 X46.526 Y115.302 E21.95901
G1 X43.706 Y112.152 E22.34344
G1 X42.996 Y111.252 E22.44768
G1 X42.716 Y110.862 E22.49134
G1 X40.386 Y107.342 E22.87518
G1 X39.816 Y106.382 E22.97670
G1 X39.576 Y105.912 E23.02468
G1 X37.786 Y102.082 E23.40910
G1 X37.366 Y101.042 E23.51109
G1 X37.206 Y100.562 E23.55710
G1 X35.986 Y96.512 E23.94171
G1 X35.846 Y95.992 E23.99067
G1 X35.636 Y94.922 E24.08982
G1 X35.016 Y90.742 E24.47407
G1 X34.956 Y90.172 E24.52618
G1 X34.906 Y89.112 E24.62268
G1 X34.906 Y84.882 E25.00731
G1 X34.956 Y83.822 E25.10380
G1 X35.016 Y83.252 E25.15592
G1 X35.636 Y79.062 E25.54106
G1 X35.846 Y77.992 E25.64021
G1 X35.986 Y77.462 E25.69006
G1 X37.206 Y73.422 E26.07380
G1 X37.606 Y72.332 E26.17937
G1 X37.786 Y71.912 E26.22092
G1 X39.576 Y68.082 E26.60534
G1 X39.816 Y67.612 E26.65333
G1 X40.146 Y67.032 E26.71401
G1 X42.706 Y63.132 E27.13821
G1 X43.446 Y62.162 E27.24914
G1 X43.706 Y61.842 E27.28664
G1 X46.526 Y58.692 E27.67107
G1 X47.637 Y57.625 E27.81111
G1 F1800.000 E26.81111
G92 E0
G1 X114.214 Y61.509 F3900.000
G1 E1.00000 F1800.000
G1 X114.654 Y59.509 E1.18617 F414.000
G1 X115.503 Y57.683 E1.36927
G1 X116.724 Y56.082 E1.55238
G1 X118.262 Y54.781 E1.73548
G1 X120.042 Y53.841 E1.91859
G1 X121.950 Y53.312 E2.09863
G1 X123.961 Y53.199 E2.28174
G1 X125.949 Y53.521 E2.46484
G1 X127.821 Y54.263 E2.64795
G1 X129.489 Y55.390 E2.83106
G1 X130.877 Y56.850 E3.01416
G1 X131.932 Y58.604 E3.20033
G1 X132.572 Y60.513 E3.38344
G1 X132.786 Y62.516 E3.56654
G1 X132.565 Y64.517 E3.74965
G1 X131.932 Y66.394 E3.92969
G1 X130.877 Y68.148 E4.11586
G1 X129.489 Y69.607 E4.29896
G1 X127.851 Y70.719 E4.47901
G1 X126.986 Y71.067 E4.56375
G1 X126.771 Y71.385 E4.59864
G1 X126.771 Y72.177 E4.67071
G1 X126.588 Y72.360 E4.69424
G1 X125.477 Y72.360 E4.79528
G1 X125.111 Y72.726 E4.84235
G1 X125.111 Y73.427 E4.90607
G1 X124.928 Y73.610 E4.92960
G1 X122.732 Y73.610 E5.12925
G1 X122.667 Y73.596 E5.13529
G1 X122.416 Y73.467 E5.16096
G1 X121.535 Y72.471 E5.28190
G1 X121.290 Y72.360 E5.30633
G1 X120.710 Y72.360 E5.35907
G1 X120.527 Y72.177 E5.38260
G1 X120.527 Y71.555 E5.43913
G1 X120.273 Y71.220 E5.47738
G1 X120.011 Y71.144 E5.50219
G1 X118.262 Y70.216 E5.68223
G1 X116.724 Y68.915 E5.86533
G1 X115.503 Y67.314 E6.04844
G1 X114.643 Y65.456 E6.23461
G1 X114.218 Y63.522 E6.41465
G1 X114.214 Y61.603 E6.58923
G1 F1800.000 E5.58923
G92 E0
G1 X103.387 Y68.692 F3900.000
G1 E1.00000 F1800.000
G1 X103.398 Y68.857 E1.01507 F414.000
G1 X102.981 Y69.711 E1.10148
G1 X102.593 Y70.414 E1.17442
G1 X102.212 Y71.031 E1.24040
G1 X101.958 Y71.402 E1.28132
G1 X102.338 Y72.081 E1.35205
G1 X102.787 Y72.057 E1.39287
G1 X103.512 Y72.052 E1.45886
G1 X104.314 Y72.087 E1.53186
G1 X105.260 Y72.177 E1.61828
G1 X105.396 Y72.272 E1.63336
G1 X105.749 Y73.025 E1.70901
G1 X105.736 Y73.191 E1.72409
G1 X105.204 Y73.970 E1.80986
G1 X104.719 Y74.608 E1.88280
G1 X104.247 Y75.169 E1.94943
G1 X103.941 Y75.499 E1.99038
G1 X104.219 Y76.225 E2.06105
G1 X104.666 Y76.267 E2.10191
G1 X105.393 Y76.369 E2.16861
G1 X106.181 Y76.522 E2.24162
G1 X107.096 Y76.746 E2.32733
G1 X107.217 Y76.861 E2.34241
G1 X107.456 Y77.657 E2.41807
G1 X107.419 Y77.819 E2.43316
G1 X106.774 Y78.518 E2.51964
G1 X106.200 Y79.078 E2.59257
G1 X105.657 Y79.559 E2.65858
G1 X105.306 Y79.842 E2.69956
G1 X105.475 Y80.601 E2.77026
G1 X105.912 Y80.707 E2.81118
G1 X106.608 Y80.912 E2.87718
G1 X107.366 Y81.176 E2.95014
G1 X108.247 Y81.535 E3.03663
G1 X108.349 Y81.665 E3.05172
G1 X108.471 Y82.489 E3.12736
G1 X108.410 Y82.643 E3.14244
G1 X107.677 Y83.236 E3.22820
G1 X107.027 Y83.707 E3.30120
G1 X106.413 Y84.109 E3.36787
G1 X106.025 Y84.336 E3.40877
G1 X106.082 Y85.112 E3.47950
G1 X106.499 Y85.281 E3.52037
G1 X107.158 Y85.585 E3.58637
G1 X107.869 Y85.957 E3.65934
G1 X108.688 Y86.440 E3.74578
G1 X108.770 Y86.584 E3.76085
G1 X108.770 Y87.416 E3.83649
G1 X108.688 Y87.560 E3.85157
G1 X107.876 Y88.039 E3.93729
G1 X107.165 Y88.412 E4.01027
G1 X106.499 Y88.719 E4.07697
G1 X106.082 Y88.888 E4.11785
G1 X106.025 Y89.664 E4.18857
G1 X106.413 Y89.891 E4.22947
G1 X107.027 Y90.293 E4.29614
G1 X107.677 Y90.764 E4.36915
G1 X108.410 Y91.357 E4.45491
G1 X108.471 Y91.511 E4.46998
G1 X108.349 Y92.335 E4.54563
G1 X108.247 Y92.465 E4.56071
G1 X107.366 Y92.824 E4.64721
G1 X106.608 Y93.088 E4.72016
G1 X105.912 Y93.293 E4.78617
G1 X105.475 Y93.399 E4.82709
G1 X105.306 Y94.158 E4.89779
G1 X105.657 Y94.441 E4.93877
G1 X106.200 Y94.922 E5.00478
G1 X106.774 Y95.482 E5.07771
G1 X107.419 Y96.181 E5.16419
G1 X107.456 Y96.343 E5.17927
G1 X107.217 Y97.139 E5.25494
G1 X107.096 Y97.254 E5.27002
G1 X106.181 Y97.478 E5.35572
G1 X105.393 Y97.631 E5.42874
G1 X104.666 Y97.733 E5.49544
G1 X104.219 Y97.775 E5.53629
G1 X103.941 Y98.501 E5.60697
G1 X104.247 Y98.831 E5.64791
G1 X104.719 Y99.392 E5.71455
G1 X105.204 Y100.030 E5.78749
G1 X105.736 Y100.809 E5.87325
G1 X105.749 Y100.975 E5.88834
G1 X105.396 Y101.728 E5.96399
G1 X105.260 Y101.823 E5.97906
G1 X104.314 Y101.913 E6.06549
G1 X103.512 Y101.948 E6.13849
G1 X102.787 Y101.943 E6.20447
G1 X102.338 Y101.919 E6.24530
G1 X101.958 Y102.598 E6.31603
G1 X102.212 Y102.969 E6.35695
G1 X102.597 Y103.593 E6.42362
G1 X102.984 Y104.296 E6.49659
G1 X103.398 Y105.143 E6.58227
G1 X103.387 Y105.308 E6.59735
G1 X102.928 Y106.002 E6.67301
G1 X102.780 Y106.077 E6.68811
G1 X101.831 Y106.028 E6.77458
G1 X101.032 Y105.946 E6.84758
G1 X100.314 Y105.836 E6.91360
G1 X99.874 Y105.747 E6.95442
G1 X99.399 Y106.363 E7.02520
G1 X99.597 Y106.767 E7.06607
G1 X99.884 Y107.433 E7.13202
G1 X100.165 Y108.184 E7.20498
G1 X100.453 Y109.091 E7.29146
G1 X100.418 Y109.253 E7.30655
G1 X99.863 Y109.872 E7.38223
G1 X99.705 Y109.925 E7.39730
G1 X98.781 Y109.740 E7.48300
G1 X98.003 Y109.543 E7.55599
G1 X97.302 Y109.328 E7.62267
G1 X96.879 Y109.175 E7.66352
G1 X96.319 Y109.716 E7.73427
G1 X96.456 Y110.143 E7.77505
G1 X96.645 Y110.851 E7.84174
G1 X96.814 Y111.636 E7.91472
G1 X96.965 Y112.567 E8.00047
G1 X96.907 Y112.722 E8.01554
G1 X96.268 Y113.254 E8.09118
G1 X96.104 Y113.283 E8.10626
G1 X95.209 Y112.963 E8.19271
G1 X94.469 Y112.655 E8.26564
G1 X93.813 Y112.343 E8.33169
G1 X93.417 Y112.130 E8.37255
G1 X92.784 Y112.583 E8.44328
G1 X92.857 Y113.026 E8.48410
G1 X92.941 Y113.747 E8.55007
G1 X92.993 Y114.548 E8.62304
G1 X93.008 Y115.498 E8.70949
G1 X92.928 Y115.644 E8.72458
G1 X92.217 Y116.077 E8.80026
G1 X92.052 Y116.082 E8.81533
G1 X91.220 Y115.639 E8.90100
G1 X90.531 Y115.226 E8.97403
G1 X89.922 Y114.817 E9.04071
G1 X89.560 Y114.550 E9.08164
G1 X88.869 Y114.905 E9.15231
G1 X88.877 Y115.355 E9.19321
G1 X88.855 Y116.080 E9.25922
G1 X88.790 Y116.880 E9.33216
G1 X88.666 Y117.823 E9.41866
G1 X88.566 Y117.955 E9.43375
G1 X87.800 Y118.280 E9.50937
G1 X87.636 Y118.261 E9.52443
G1 X86.877 Y117.701 E9.61017
G1 X86.256 Y117.192 E9.68315
G1 X85.713 Y116.700 E9.74981
G1 X85.394 Y116.383 E9.79070
G1 X84.658 Y116.634 E9.86142
G1 X84.601 Y117.079 E9.90228
G1 X84.471 Y117.802 E9.96900
G1 X84.290 Y118.583 E10.04189
G1 X84.032 Y119.490 E10.12768
G1 X83.914 Y119.606 E10.14278
G1 X83.109 Y119.816 E10.21838
G1 X82.949 Y119.773 E10.23344
G1 X82.274 Y119.103 E10.31994
G1 X81.734 Y118.509 E10.39289
G1 X81.274 Y117.948 E10.45890
G1 X81.005 Y117.588 E10.49975
G1 X80.240 Y117.729 E10.57048
G1 X80.118 Y118.163 E10.61143
G1 X79.887 Y118.851 E10.67742
G1 X79.596 Y119.597 E10.75030
G1 X79.205 Y120.465 E10.83683
G1 X79.071 Y120.563 E10.85193
G1 X78.244 Y120.653 E10.92756
G1 X78.092 Y120.587 E10.94262
G1 X77.527 Y119.832 E11.02832
G1 X77.079 Y119.167 E11.10122
G1 X76.700 Y118.538 E11.16803
G1 X76.487 Y118.143 E11.20885
G1 X75.710 Y118.171 E11.27955
G1 X75.526 Y118.581 E11.32041
G1 X75.197 Y119.229 E11.38645
G1 X74.800 Y119.925 E11.45939
G1 X74.287 Y120.726 E11.54589
G1 X74.140 Y120.803 E11.56098
G1 X73.309 Y120.772 E11.63656
G1 X73.168 Y120.685 E11.65162
G1 X72.719 Y119.856 E11.73731
G1 X72.373 Y119.132 E11.81030
G1 X72.090 Y118.456 E11.87695
G1 X71.936 Y118.033 E11.91783
G1 X71.163 Y117.948 E11.98858
G1 X70.922 Y118.327 E12.02944
G1 X70.498 Y118.926 E12.09610
G1 X70.003 Y119.558 E12.16914
G1 X69.384 Y120.269 E12.25484
G1 X69.227 Y120.323 E12.26990
G1 X68.409 Y120.172 E12.34554
G1 X68.282 Y120.065 E12.36061
G1 X67.956 Y119.173 E12.44701
G1 X67.720 Y118.406 E12.51997
G1 X67.540 Y117.703 E12.58599
G1 X67.449 Y117.263 E12.62684
G1 X66.697 Y117.066 E12.69758
G1 X66.403 Y117.406 E12.73841
G1 X65.902 Y117.931 E12.80439
G1 X65.321 Y118.483 E12.87730
G1 X64.599 Y119.102 E12.96377
G1 X64.436 Y119.133 E12.97885
G1 X63.649 Y118.865 E13.05445
G1 X63.539 Y118.741 E13.06953
G1 X63.348 Y117.818 E13.15525
G1 X63.225 Y117.025 E13.22818
G1 X63.148 Y116.296 E13.29486
G1 X63.124 Y115.847 E13.33571
G1 X62.407 Y115.542 E13.40653
G1 X62.067 Y115.836 E13.44740
G1 X61.489 Y116.287 E13.51405
G1 X60.832 Y116.749 E13.58709
G1 X60.035 Y117.252 E13.67279
G1 X59.869 Y117.259 E13.68785
G1 X59.130 Y116.879 E13.76344
G1 X59.039 Y116.740 E13.77852
G1 X58.984 Y115.791 E13.86493
G1 X58.978 Y114.988 E13.93794
G1 X59.009 Y114.263 E14.00398
G1 X59.050 Y113.815 E14.04489
G1 X58.386 Y113.410 E14.11557
G1 X58.006 Y113.651 E14.15642
G1 X57.369 Y114.014 E14.22318
G1 X56.651 Y114.375 E14.29619
G1 X55.790 Y114.756 E14.38183
G1 X55.625 Y114.739 E14.39689
G1 X54.948 Y114.256 E14.47253
G1 X54.879 Y114.105 E14.48762
G1 X54.962 Y113.158 E14.57412
G1 X55.074 Y112.363 E14.64705
G1 X55.209 Y111.651 E14.71299
G1 X55.314 Y111.213 E14.75391
G1 X54.716 Y110.716 E14.82463
G1 X54.306 Y110.899 E14.86547
G1 X53.630 Y111.162 E14.93143
G1 X52.868 Y111.416 E15.00444
G1 X51.953 Y111.669 E15.09081
G1 X51.792 Y111.629 E15.10587
G1 X51.193 Y111.052 E15.18153
G1 X51.146 Y110.892 E15.19663
G1 X51.365 Y109.976 E15.28233
G1 X51.591 Y109.206 E15.35527
G1 X51.830 Y108.512 E15.42200
G1 X51.999 Y108.096 E15.46282
G1 X51.479 Y107.516 E15.53361
G1 X51.047 Y107.637 E15.57447
G1 X50.332 Y107.800 E15.64114
G1 X49.541 Y107.941 E15.71417
G1 X48.606 Y108.057 E15.79988
G1 X48.453 Y107.994 E15.81495
G1 X47.944 Y107.335 E15.89057
G1 X47.921 Y107.171 E15.90564
G1 X48.274 Y106.288 E15.99211
G1 X48.610 Y105.559 E16.06509
G1 X48.945 Y104.915 E16.13110
G1 X49.172 Y104.527 E16.17195
G1 X48.743 Y103.878 E16.24268
G1 X48.297 Y103.935 E16.28355
G1 X47.573 Y103.993 E16.34956
G1 X46.771 Y104.016 E16.42249
G1 X45.821 Y103.996 E16.50898
G1 X45.678 Y103.910 E16.52405
G1 X45.271 Y103.185 E16.59971
G1 X45.273 Y103.019 E16.61479
G1 X45.746 Y102.204 E16.70051
G1 X46.184 Y101.531 E16.77344
G1 X46.614 Y100.937 E16.84016
G1 X46.894 Y100.587 E16.88097
G1 X46.564 Y99.881 E16.95177
G1 X46.115 Y99.873 E16.99261
G1 X45.390 Y99.823 E17.05865
G1 X44.594 Y99.731 E17.13153
G1 X43.656 Y99.572 E17.21802
G1 X43.528 Y99.467 E17.23310
G1 X43.231 Y98.689 E17.30883
G1 X43.256 Y98.525 E17.32391
G1 X43.843 Y97.788 E17.40958
G1 X44.375 Y97.186 E17.48258
G1 X44.886 Y96.661 E17.54925
G1 X45.215 Y96.355 E17.59011
G1 X44.991 Y95.610 E17.66088
G1 X44.548 Y95.536 E17.70168
G1 X43.831 Y95.381 E17.76842
G1 X43.057 Y95.171 E17.84132
G1 X42.160 Y94.881 E17.92703
G1 X42.048 Y94.758 E17.94212
G1 X41.867 Y93.945 E18.01785
G1 X41.916 Y93.786 E18.03295
G1 X42.611 Y93.138 E18.11933
G1 X43.224 Y92.620 E18.19230
G1 X43.801 Y92.179 E18.25832
G1 X44.170 Y91.924 E18.29918
G1 X44.057 Y91.155 E18.36987
G1 X43.629 Y91.017 E18.41078
G1 X42.950 Y90.761 E18.47677
G1 X42.213 Y90.442 E18.54973
G1 X41.362 Y90.020 E18.63611
G1 X41.270 Y89.883 E18.65118
G1 X41.209 Y89.053 E18.72679
G1 X41.280 Y88.904 E18.74187
G1 X42.055 Y88.366 E18.82760
G1 X42.737 Y87.943 E18.90060
G1 X43.378 Y87.588 E18.96726
G1 X43.782 Y87.389 E19.00818
G1 X43.782 Y86.611 E19.07896
G1 X43.378 Y86.412 E19.11988
G1 X42.744 Y86.060 E19.18586
G1 X42.061 Y85.639 E19.25880
G1 X41.280 Y85.096 E19.34528
G1 X41.209 Y84.947 E19.36036
G1 X41.270 Y84.117 E19.43597
G1 X41.362 Y83.980 E19.45103
G1 X42.206 Y83.561 E19.53668
G1 X42.943 Y83.242 E19.60968
G1 X43.629 Y82.983 E19.67636
G1 X44.057 Y82.845 E19.71728
G1 X44.170 Y82.076 E19.78796
G1 X43.801 Y81.821 E19.82883
G1 X43.218 Y81.375 E19.89555
G1 X42.605 Y80.857 E19.96852
G1 X41.916 Y80.214 E20.05420
G1 X41.867 Y80.055 E20.06929
G1 X42.048 Y79.242 E20.14503
G1 X42.160 Y79.119 E20.16011
G1 X43.064 Y78.826 E20.24653
G1 X43.838 Y78.617 E20.31945
G1 X44.548 Y78.464 E20.38547
G1 X44.991 Y78.390 E20.42626
G1 X45.215 Y77.645 E20.49704
G1 X44.886 Y77.339 E20.53790
G1 X44.380 Y76.819 E20.60386
G1 X43.849 Y76.218 E20.67684
G1 X43.256 Y75.475 E20.76324
G1 X43.231 Y75.311 E20.77832
G1 X43.528 Y74.533 E20.85404
G1 X43.656 Y74.428 E20.86913
G1 X44.586 Y74.270 E20.95488
G1 X45.383 Y74.177 E21.02782
G1 X46.115 Y74.127 E21.09454
G1 X46.564 Y74.119 E21.13538
G1 X46.894 Y73.413 E21.20617
G1 X46.614 Y73.063 E21.24698
G1 X46.184 Y72.469 E21.31370
G1 X45.746 Y71.796 E21.38663
G1 X45.273 Y70.981 E21.47235
G1 X45.271 Y70.815 E21.48744
G1 X45.678 Y70.090 E21.56309
G1 X45.821 Y70.004 E21.57817
G1 X46.771 Y69.984 E21.66465
