; generated by Slic3r 1.0.1 on 2014-05-20 at 02:49:15

; layer_height = 0.25
; perimeters = 4
; top_solid_layers = 3
; bottom_solid_layers = 3
; fill_density = 0.35
; perimeter_speed = 23
; infill_speed = 43
; travel_speed = 65
; nozzle_diameter = 0.35
; filament_diameter = 1.75
; extrusion_multiplier = 1
; perimeters extrusion width = 0.35mm
; infill extrusion width = 0.39mm
; solid infill extrusion width = 0.39mm
; top infill extrusion width = 0.39mm
; support material extrusion width = 0.35mm
; first layer extrusion width = 0.70mm

G21 ; set units to millimeters
M107
M190 S110 ; wait for bed temperature to be reached
M104 S230 ; set temperature
G28 ; home all axes
M109 S230 ; wait for temperature to be reached
G90 ; use absolute coordinates
G92 E0
M82 ; use absolute distances for extrusion
G1 F1800.000 E-1.00000
G92 E0
G1 Z0.350 F3900.000
G1 X66.990 Y48.320 F3900.000
G1 E1.00000 F1800.000
G1 X67.820 Y47.320 E1.11817 F414.000
G1 X68.820 Y46.490 E1.23634
G1 X69.960 Y45.880 E1.35391
G1 X71.210 Y45.500 E1.47270
G1 X72.500 Y45.380 E1.59051
G1 X101.500 Y45.380 E4.22747
G1 X102.790 Y45.500 E4.34527
G1 X104.040 Y45.880 E4.46407
G1 X105.180 Y46.490 E4.58164
G1 X106.180 Y47.320 E4.69981
G1 X107.010 Y48.320 E4.81798
G1 X107.620 Y49.460 E4.93555
G1 X108.000 Y50.710 E5.05434
G1 X108.120 Y52.000 E5.17215
G1 X108.120 Y122.000 E11.53722
G1 X108.000 Y123.290 E11.65503
G1 X107.620 Y124.540 E11.77382
G1 X107.010 Y125.680 E11.89139
G1 X106.180 Y126.680 E12.00956
G1 X105.180 Y127.510 E12.12773
G1 X104.040 Y128.120 E12.24530
G1 X102.790 Y128.500 E12.36409
G1 X101.500 Y128.620 E12.48190
G1 X72.500 Y128.620 E15.11886
G1 X71.210 Y128.500 E15.23666
G1 X69.960 Y128.120 E15.35546
G1 X68.820 Y127.510 E15.47303
G1 X67.820 Y126.680 E15.59120
G1 X66.990 Y125.680 E15.70937
G1 X66.380 Y124.540 E15.82693
G1 X66.000 Y123.290 E15.94573
G1 X65.880 Y122.000 E16.06354
G1 X65.880 Y52.000 E22.42861
G1 X66.000 Y50.710 E22.54641
G1 X66.380 Y49.460 E22.66521
G1 X66.946 Y48.403 E22.77426
G1 F1800.000 E21.77426
G92 E0
G1 X72.188 Y51.871 F3900.000
G1 E1.00000 F1800.000
G1 X72.371 Y51.688 E1.02354 F414.000
G1 X101.629 Y51.688 E3.68403
G1 X101.812 Y51.871 E3.70757
G1 X101.812 Y122.129 E10.09617
G1 X101.629 Y122.312 E10.11971
G1 X72.371 Y122.312 E12.78020
G1 X72.188 Y122.129 E12.80374
G1 X72.188 Y93.121 E15.44150
G1 X72.371 Y92.938 E15.46504
G1 X84.451 Y92.938 E16.56348
G1 X86.284 Y92.651 E16.73224
G1 X86.378 Y92.621 E16.74118
G1 X87.943 Y91.823 E16.90093
G1 X88.023 Y91.765 E16.90988
G1 X89.265 Y90.523 E17.06963
G1 X89.323 Y90.443 E17.07857
G1 X90.121 Y88.878 E17.23832
G1 X90.151 Y88.784 E17.24727
G1 X90.426 Y87.049 E17.40702
G1 X90.426 Y86.951 E17.41596
G1 X90.151 Y85.216 E17.57572
G1 X90.121 Y85.122 E17.58466
G1 X89.323 Y83.557 E17.74441
G1 X89.265 Y83.477 E17.75336
G1 X88.023 Y82.235 E17.91311
G1 X87.943 Y82.177 E17.92205
G1 X86.378 Y81.379 E18.08180
G1 X86.284 Y81.349 E18.09075
G1 X84.451 Y81.062 E18.25950
G1 X72.371 Y81.062 E19.35795
G1 X72.188 Y80.879 E19.38148
G1 X72.188 Y51.964 E22.01072
G1 X72.850 Y52.350 F3900.000
G1 X101.150 Y52.350 E24.58403 F289.800
G1 X101.150 Y121.650 E30.88545
G1 X72.850 Y121.650 E33.45876
G1 X72.850 Y93.600 E36.00933
G1 X84.528 Y93.600 E37.07117
G1 X86.541 Y93.281 E37.25652
G1 X88.382 Y92.343 E37.44441
G1 X89.843 Y90.882 E37.63229
G1 X90.781 Y89.041 E37.82018
G1 X91.104 Y87.000 E38.00807
G1 X90.781 Y84.959 E38.19596
G1 X89.843 Y83.118 E38.38385
G1 X88.382 Y81.657 E38.57173
G1 X86.541 Y80.719 E38.75962
G1 X84.528 Y80.400 E38.94497
G1 X72.850 Y80.400 E40.00681
G1 X72.850 Y52.444 E42.54886
G1 X73.391 Y52.662 F3900.000
G1 X73.475 Y52.975 F3900.000
G1 X100.525 Y52.975 E45.00852 F414.000
G1 X100.525 Y121.025 E51.19630
G1 X73.475 Y121.025 E53.65597
G1 X73.475 Y94.225 E56.09290
G1 X84.577 Y94.225 E57.10239
G1 X86.736 Y93.883 E57.30121
G1 X88.754 Y92.855 E57.50709
G1 X90.355 Y91.254 E57.71298
G1 X91.383 Y89.236 E57.91887
G1 X91.737 Y87.000 E58.12476
G1 X91.383 Y84.764 E58.33064
G1 X90.355 Y82.746 E58.53653
G1 X88.754 Y81.145 E58.74242
G1 X86.736 Y80.117 E58.94830
G1 X84.577 Y79.775 E59.14713
G1 X73.475 Y79.775 E60.15661
G1 X73.475 Y53.069 E62.58502
G1 X74.100 Y53.600 F3900.000
G1 X99.900 Y53.600 E64.93105 F414.000
G1 X99.900 Y120.400 E71.00518
G1 X74.100 Y120.400 E73.35121
G1 X74.100 Y94.850 E75.67450
G1 X84.626 Y94.850 E76.63163
G1 X86.932 Y94.485 E76.84393
G1 X89.126 Y93.367 E77.06781
G1 X90.867 Y91.626 E77.29170
G1 X91.985 Y89.432 E77.51559
G1 X92.370 Y87.000 E77.73947
G1 X91.985 Y84.568 E77.96336
G1 X90.867 Y82.374 E78.18724
G1 X89.126 Y80.633 E78.41113
G1 X86.932 Y79.515 E78.63502
G1 X84.626 Y79.150 E78.84731
G1 X74.100 Y79.150 E79.80445
G1 X74.100 Y53.694 E82.11922
G1 X74.725 Y54.225 F3900.000
G1 X99.275 Y54.225 E84.35160 F414.000
G1 X99.275 Y119.775 E90.31209
G1 X74.725 Y119.775 E92.54447
G1 X74.725 Y95.475 E94.75412
G1 X84.675 Y95.475 E95.65891
G1 X87.127 Y95.086 E95.88467
G1 X89.498 Y93.879 E96.12656
G1 X91.379 Y91.998 E96.36844
G1 X92.622 Y89.556 E96.61758
G1 X92.598 Y89.556 E96.61985
G1 X93.002 Y87.000 E96.85519
G1 X92.586 Y84.373 E97.09708
G1 X91.379 Y82.002 E97.33896
G1 X89.498 Y80.121 E97.58085
G1 X87.127 Y78.914 E97.82273
G1 X84.675 Y78.525 E98.04850
G1 X74.725 Y78.525 E98.95329
G1 X74.725 Y54.318 E101.15441
G1 F1800.000 E100.15441
G92 E0
G1 X84.500 Y109.121 F3900.000
G1 E1.00000 F1800.000
G1 X86.536 Y109.964 E1.20035 F540.000
G1 X87.379 Y112.000 E1.40070
G1 X86.536 Y114.036 E1.60106
G1 X84.500 Y114.879 E1.80141
G1 X82.464 Y114.036 E2.00176
G1 X81.621 Y112.000 E2.20211
G1 X82.464 Y109.964 E2.40247
G1 X84.413 Y109.157 E2.59429
G1 X84.880 Y108.625 F3900.000
G1 X84.500 Y108.445 F3900.000
G1 X87.014 Y109.486 E2.84172 F540.000
G1 X88.055 Y112.000 E3.08914
G1 X87.014 Y114.514 E3.33657
G1 X84.500 Y115.555 E3.58399
G1 X81.986 Y114.514 E3.83141
G1 X80.945 Y112.000 E4.07884
G1 X81.986 Y109.486 E4.32626
G1 X84.413 Y108.481 E4.56516
G1 X83.860 Y108.033 F3900.000
G1 X84.500 Y107.768 E4.62815 F540.000
G1 X87.492 Y109.008 E4.92264
G1 X88.732 Y112.000 E5.21714
G1 X87.492 Y114.992 E5.51164
G1 X84.500 Y116.232 E5.80614
G1 X81.508 Y114.992 E6.10062
G1 X80.268 Y112.000 E6.39512
G1 X81.508 Y109.008 E6.68962
G1 X83.773 Y108.069 E6.91261
G1 X83.621 Y107.456 F3900.000
G1 X84.500 Y107.092 E6.99913 F540.000
G1 X87.970 Y108.530 E7.34070
G1 X89.408 Y112.000 E7.68227
G1 X87.970 Y115.471 E8.02384
G1 X84.500 Y116.908 E8.36541
G1 X81.030 Y115.471 E8.70697
G1 X79.592 Y112.000 E9.04854
G1 X81.030 Y108.529 E9.39011
G1 X83.534 Y107.492 E9.63664
G1 F1800.000 E8.63664
G92 E0
G1 X84.500 Y64.879 F3900.000
G1 E1.00000 F1800.000
G1 X82.464 Y64.036 E1.20035 F540.000
G1 X81.621 Y62.000 E1.40070
G1 X82.464 Y59.964 E1.60106
G1 X84.500 Y59.121 E1.80141
G1 X86.536 Y59.964 E2.00176
G1 X87.379 Y62.000 E2.20211
G1 X86.536 Y64.036 E2.40247
G1 X84.587 Y64.843 E2.59429
G1 X84.120 Y65.375 F3900.000
G1 X84.099 Y65.389 F3900.000
G1 X81.986 Y64.514 E2.80227 F540.000
G1 X80.945 Y62.000 E3.04969
G1 X81.986 Y59.486 E3.29712
G1 X84.500 Y58.445 E3.54454
G1 X87.014 Y59.486 E3.79196
G1 X88.055 Y62.000 E4.03939
G1 X87.014 Y64.514 E4.28682
G1 X84.500 Y65.555 E4.53424
G1 X84.186 Y65.425 E4.56516
G1 X83.860 Y65.967 F3900.000
G1 X81.508 Y64.992 E4.79667 F540.000
G1 X80.268 Y62.000 E5.09117
G1 X81.508 Y59.008 E5.38567
G1 X84.500 Y57.768 E5.68017
G1 X87.492 Y59.008 E5.97466
G1 X88.732 Y62.000 E6.26916
G1 X87.492 Y64.992 E6.56366
G1 X84.500 Y66.232 E6.85815
G1 X83.947 Y66.002 E6.91261
G1 X83.621 Y66.544 F3900.000
G1 X81.030 Y65.471 E7.16766 F540.000
G1 X79.592 Y62.000 E7.50923
G1 X81.030 Y58.529 E7.85080
G1 X84.500 Y57.092 E8.19236
G1 X87.970 Y58.530 E8.53393
G1 X89.408 Y62.000 E8.87550
G1 X87.970 Y65.471 E9.21708
G1 X84.500 Y66.908 E9.55864
G1 X83.708 Y66.580 E9.63663
G1 X83.452 Y66.953 F3900.000
G1 X98.832 Y82.334 E11.63256 F1080.000
G1 X98.832 Y81.442 E11.71439
G1 X84.696 Y67.306 E13.54880
G1 X85.327 Y67.045 E13.61144
G1 X98.832 Y80.550 E15.36402
G1 X98.832 Y79.658 E15.44585
G1 X85.958 Y66.784 E17.11659
G1 X86.588 Y66.523 E17.17923
G1 X98.832 Y78.767 E18.76813
G1 X98.832 Y77.875 E18.84997
G1 X87.219 Y66.261 E20.35704
G1 X87.850 Y66.000 E20.41967
G1 X98.832 Y76.983 E21.84491
G1 X98.832 Y76.091 E21.92674
G1 X88.380 Y65.639 E23.28312
G1 X88.641 Y65.008 E23.34575
G1 X98.832 Y75.199 E24.66822
G1 X98.832 Y74.307 E24.75006
G1 X88.903 Y64.378 E26.03864
G1 X89.164 Y63.747 E26.10127
G1 X98.832 Y73.416 E27.35595
G1 X98.832 Y72.524 E27.43779
G1 X89.425 Y63.117 E28.65857
G1 X89.686 Y62.486 E28.72120
G1 X98.832 Y71.632 E29.90809
G1 X98.832 Y70.740 E29.98993
G1 X89.743 Y61.651 E31.16947
G1 X89.112 Y60.128 F3900.000
G1 X98.832 Y69.848 E32.43084 F1080.000
G1 X98.832 Y68.957 E32.51267
G1 X84.543 Y54.668 E34.36695
G1 X83.652 Y54.668 E34.44878
G1 X86.372 Y57.388 E34.80176
G1 X84.849 Y56.757 F3900.000
G1 X82.760 Y54.668 E35.07292 F1080.000
G1 X81.868 Y54.668 E35.15475
G1 X84.014 Y56.814 E35.43325
G1 X83.383 Y57.075 E35.49588
G1 X80.976 Y54.668 E35.80828
G1 X80.084 Y54.668 E35.89011
G1 X82.753 Y57.336 E36.23640
G1 X82.122 Y57.597 E36.29904
G1 X79.193 Y54.668 E36.67923
G1 X78.301 Y54.668 E36.76106
G1 X81.492 Y57.859 E37.17514
G1 X80.861 Y58.120 E37.23777
G1 X77.409 Y54.668 E37.68575
G1 X76.517 Y54.668 E37.76759
G1 X80.500 Y58.650 E38.28444
G1 X80.239 Y59.281 E38.34707
G1 X75.625 Y54.668 E38.94575
G1 X75.168 Y55.102 E39.00364
G1 X79.977 Y59.912 E39.62780
G1 X79.716 Y60.542 E39.69044
G1 X75.168 Y55.994 E40.28071
G1 X75.168 Y56.886 E40.36254
G1 X79.455 Y61.173 E40.91892
G1 X79.194 Y61.804 E40.98155
G1 X75.168 Y57.777 E41.50403
G1 X75.168 Y58.669 E41.58587
G1 X79.547 Y63.048 E42.15413
G1 X80.177 Y64.571 F3900.000
G1 X75.168 Y59.561 E42.80422 F1080.000
G1 X75.168 Y60.453 E42.88606
G1 X98.832 Y84.117 E45.95702
G1 X98.832 Y85.009 E46.03885
G1 X75.168 Y61.345 E49.10981
G1 X75.168 Y62.236 E49.19164
G1 X98.832 Y85.901 E52.26260
G1 X98.832 Y86.793 E52.34444
G1 X75.168 Y63.128 E55.41540
G1 X75.168 Y64.020 E55.49723
G1 X98.832 Y87.685 E58.56819
G1 X98.832 Y88.576 E58.65003
G1 X75.168 Y64.912 E61.72099
G1 X75.168 Y65.804 E61.80282
G1 X88.459 Y79.095 E63.52765
G1 X86.902 Y78.429 F3900.000
G1 X75.168 Y66.695 E65.05037 F1080.000
G1 X75.168 Y67.587 E65.13220
G1 X85.842 Y78.262 E66.51741
G1 X84.782 Y78.094 E66.61586
G1 X75.168 Y68.479 E67.86356
G1 X75.168 Y69.371 E67.94539
G1 X83.879 Y78.082 E69.07587
G1 X82.987 Y78.082 E69.15771
G1 X75.168 Y70.263 E70.17246
G1 X75.168 Y71.155 E70.25429
G1 X82.095 Y78.082 E71.15331
G1 X81.204 Y78.082 E71.23515
G1 X75.168 Y72.046 E72.01844
G1 X75.168 Y72.938 E72.10027
G1 X80.312 Y78.082 E72.76783
G1 X79.420 Y78.082 E72.84966
G1 X75.168 Y73.830 E73.40149
G1 X75.168 Y74.722 E73.48332
G1 X78.528 Y78.082 E73.91942
G1 X77.636 Y78.082 E74.00126
G1 X75.168 Y75.614 E74.32162
G1 X75.168 Y76.505 E74.40346
G1 X76.745 Y78.082 E74.60810
G1 X75.853 Y78.082 E74.68993
G1 X75.168 Y77.397 E74.77884
G1 X81.929 Y66.323 F3900.000
G1 X98.832 Y83.226 E76.97232 F1080.000
G1 X92.405 Y83.041 F3900.000
G1 X98.832 Y89.468 E77.80640 F1080.000
G1 X98.832 Y90.360 E77.88823
G1 X93.071 Y84.598 E78.63594
G1 X93.238 Y85.658 E78.73438
G1 X98.832 Y91.252 E79.46031
G1 X98.832 Y92.144 E79.54214
G1 X93.406 Y86.718 E80.24628
G1 X93.362 Y87.565 E80.32412
G1 X98.832 Y93.036 E81.03407
G1 X98.832 Y93.927 E81.11590
G1 X93.240 Y88.335 E81.84167
G1 X93.118 Y89.104 E81.91320
G1 X98.832 Y94.819 E82.65479
G1 X98.832 Y95.711 E82.73663
G1 X92.970 Y89.849 E83.49731
G1 X92.669 Y90.440 E83.55816
G1 X98.832 Y96.603 E84.35791
G1 X98.832 Y97.495 E84.43974
G1 X92.368 Y91.031 E85.27856
G1 X92.067 Y91.621 E85.33940
G1 X98.832 Y98.386 E86.21728
G1 X98.832 Y99.278 E86.29912
G1 X91.766 Y92.212 E87.21606
G1 X91.333 Y92.670 E87.27394
G1 X98.832 Y100.170 E88.24719
G1 X98.832 Y101.062 E88.32903
G1 X90.887 Y93.116 E89.36014
G1 X90.441 Y93.562 E89.41801
G1 X98.832 Y101.954 E90.50699
G1 X98.832 Y102.845 E90.58882
G1 X89.995 Y94.008 E91.73567
G1 X89.480 Y94.385 E91.79422
G1 X98.832 Y103.737 E93.00788
G1 X98.832 Y104.629 E93.08972
G1 X88.889 Y94.686 E94.38005
G1 X88.298 Y94.987 E94.44089
G1 X98.832 Y105.521 E95.80789
G1 X98.832 Y106.413 E95.88972
G1 X87.708 Y95.288 E97.33339
G1 X87.071 Y95.544 E97.39630
G1 X98.832 Y107.304 E98.92250
G1 X98.832 Y108.196 E99.00433
G1 X86.302 Y95.666 E100.63044
G1 X85.532 Y95.788 E100.70197
G1 X98.832 Y109.088 E102.42799
G1 X98.832 Y109.980 E102.50982
G1 X84.762 Y95.909 E104.33574
G1 X83.878 Y95.918 E104.41683
G1 X98.832 Y110.872 E106.35741
G1 X98.832 Y111.764 E106.43925
G1 X82.986 Y95.918 E108.49557
G1 X82.095 Y95.918 E108.57740
G1 X98.832 Y112.655 E110.74945
G1 X98.832 Y113.547 E110.83128
G1 X81.203 Y95.918 E113.11906
G1 X80.311 Y95.918 E113.20089
G1 X98.832 Y114.439 E115.60440
G1 X98.832 Y115.331 E115.68624
G1 X79.419 Y95.918 E118.20548
G1 X78.527 Y95.918 E118.28731
G1 X98.832 Y116.223 E120.92228
G1 X98.832 Y117.114 E121.00411
G1 X77.636 Y95.918 E123.75481
G1 X76.744 Y95.918 E123.83665
G1 X98.832 Y118.006 E126.70308
G1 X89.701 Y111.551 F3900.000
G1 X97.483 Y119.332 E127.71289 F1080.000
G1 X96.591 Y119.332 E127.79472
G1 X89.703 Y112.445 E128.68855
G1 X89.442 Y113.075 E128.75118
G1 X95.699 Y119.332 E129.56318
G1 X94.808 Y119.332 E129.64501
G1 X89.181 Y113.706 E130.37517
G1 X88.920 Y114.336 E130.43780
G1 X93.916 Y119.332 E131.08613
G1 X93.024 Y119.332 E131.16796
G1 X88.659 Y114.967 E131.73446
G1 X88.397 Y115.598 E131.79709
G1 X92.132 Y119.332 E132.28175
G1 X91.240 Y119.332 E132.36358
G1 X87.891 Y115.983 E132.79822
G1 X87.260 Y116.244 E132.86086
G1 X90.348 Y119.332 E133.26161
G1 X89.457 Y119.332 E133.34344
G1 X86.630 Y116.505 E133.71029
G1 X85.999 Y116.767 E133.77293
G1 X88.565 Y119.332 E134.10589
G1 X87.673 Y119.332 E134.18772
G1 X85.368 Y117.028 E134.48678
G1 X84.738 Y117.289 E134.54942
G1 X86.781 Y119.332 E134.81458
G1 X85.889 Y119.332 E134.89642
G1 X83.552 Y116.995 E135.19975
G1 X82.030 Y116.364 F3900.000
G1 X84.998 Y119.332 E135.58492 F1080.000
G1 X80.136 Y114.471 F3900.000
G1 X75.168 Y109.502 E136.22963 F1080.000
G1 X75.168 Y110.394 E136.31147
G1 X84.106 Y119.332 E137.47137
G1 X83.214 Y119.332 E137.55320
G1 X75.168 Y111.286 E138.59737
G1 X75.168 Y112.178 E138.67920
G1 X82.322 Y119.332 E139.60764
G1 X81.430 Y119.332 E139.68948
G1 X75.168 Y113.070 E140.50219
G1 X75.168 Y113.961 E140.58402
G1 X80.539 Y119.332 E141.28100
G1 X79.647 Y119.332 E141.36283
G1 X75.168 Y114.853 E141.94408
G1 X75.168 Y115.745 E142.02591
G1 X78.755 Y119.332 E142.49143
G1 X77.863 Y119.332 E142.57326
G1 X75.168 Y116.637 E142.92305
G1 X75.168 Y117.529 E143.00488
G1 X76.971 Y119.332 E143.23894
G1 X76.080 Y119.332 E143.32077
G1 X75.168 Y118.420 E143.43910
G1 X75.168 Y119.312 E143.52093
G1 X75.188 Y119.332 E143.52353
G1 X79.505 Y112.948 F3900.000
G1 X75.168 Y108.611 E144.08641 F1080.000
G1 X75.168 Y107.719 E144.16825
G1 X79.211 Y111.762 E144.69295
G1 X79.472 Y111.132 E144.75559
G1 X75.168 Y106.827 E145.31419
G1 X75.168 Y105.935 E145.39602
G1 X79.733 Y110.501 E145.98852
G1 X79.995 Y109.870 E146.05116
G1 X75.168 Y105.043 E146.67755
G1 X75.168 Y104.152 E146.75939
G1 X80.256 Y109.240 E147.41968
G1 X80.517 Y108.609 E147.48231
G1 X75.168 Y103.260 E148.17650
G1 X75.168 Y102.368 E148.25833
G1 X80.902 Y108.103 E149.00253
G1 X81.533 Y107.841 E149.06516
G1 X75.168 Y101.476 E149.89119
G1 X75.168 Y100.584 E149.97302
G1 X82.164 Y107.580 E150.88089
G1 X82.794 Y107.319 E150.94352
G1 X75.168 Y99.692 E151.93322
G1 X75.168 Y98.801 E152.01506
G1 X83.425 Y107.058 E153.08660
G1 X84.055 Y106.797 E153.14923
G1 X75.168 Y97.909 E154.30260
G1 X75.168 Y97.017 E154.38443
G1 X84.949 Y106.799 E155.65379
G1 X86.472 Y107.429 F3900.000
G1 X75.168 Y96.125 E157.12071 F1080.000
G1 X75.852 Y95.918 E157.18632
G1 X98.832 Y118.898 E160.16848
G1 X98.375 Y119.332 E160.22637
G1 X89.071 Y110.028 E161.43374
G1 F1800.000 E160.43374
G92 E0
G1 X85.435 Y54.668 F3900.000
G1 E1.00000 F1800.000
G1 X98.832 Y68.065 E2.73855 F1080.000
G1 X98.832 Y67.173 E2.82038
G1 X86.327 Y54.668 E4.44319
G1 X87.219 Y54.668 E4.52503
G1 X98.832 Y66.281 E6.03211
G1 X98.832 Y65.389 E6.11395
G1 X88.111 Y54.668 E7.50530
G1 X89.002 Y54.668 E7.58713
G1 X98.832 Y64.498 E8.86276
G1 X98.832 Y63.606 E8.94459
G1 X89.894 Y54.668 E10.10448
G1 X90.786 Y54.668 E10.18632
G1 X98.832 Y62.714 E11.23048
G1 X98.832 Y61.822 E11.31231
